public/images/dcrdata.svg

<svg viewBox="0 0 500 500" xmlns="http://www.w3.org/2000/svg">
	<text fill="#aca793" font-family="Lato" font-weight="600" letter-spacing="0" transform="matrix(.60842152 0 0 .5692076 28.72081 -60.292822)" word-spacing="0" x="51.377365" xml:space="preserve" y="346.8248"><tspan fill="#aca793" font-family="monospace" font-size="128.779663" font-weight="normal" x="51.377365" y="346.8248">01101100 </tspan><tspan fill="#aca793" font-family="monospace" font-size="128.779663" font-weight="normal" x="51.377365" y="507.79938">01101111 </tspan><tspan fill="#aca793" font-family="monospace" font-size="128.779663" font-weight="normal" x="51.377365" y="668.77393">01110110 </tspan><tspan fill="#aca793" font-family="monospace" font-size="128.779663" font-weight="normal" x="51.377365" y="829.74854">01100101</tspan></text>
	<g fill="#091440">
		<path d="m231.88 278.06h74.22a50 50 0 0 0 0-100h-23.65l-50.57-43.9h74.22a93.92 93.92 0 0 1 35.38 180.92l58.52 50.78h-67z"/>
		<path d="m268.12 221.95h-74.22a50 50 0 0 0 0 100h23.64l50.57 43.9h-74.21a93.92 93.92 0 0 1 -35.38-180.92l-58.52-50.79h67z"/>
	</g>
</svg>

<?xml version="1.0" encoding="UTF-8" standalone="no"?>
<svg
   xmlns:dc="http://purl.org/dc/elements/1.1/"
   xmlns:cc="http://creativecommons.org/ns#"
   xmlns:rdf="http://www.w3.org/1999/02/22-rdf-syntax-ns#"
   xmlns:svg="http://www.w3.org/2000/svg"
   xmlns="http://www.w3.org/2000/svg"
   version="1.1"
   viewBox="0 0 500 500"
   data-name="Layer 1"
   id="Layer_1">
  <metadata
     id="metadata17">
    <rdf:RDF>
      <cc:Work
         rdf:about="">
        <dc:format>image/svg+xml</dc:format>
        <dc:type
           rdf:resource="http://purl.org/dc/dcmitype/StillImage" />
        <dc:title>decred - symbol -1 color positive</dc:title>
      </cc:Work>
    </rdf:RDF>
  </metadata>
  <defs
     id="defs4">
    <style
       id="style2">.cls-1{fill:#091440;}</style>
  </defs>
  <title
     id="title6">decred - symbol -1 color positive</title>
  <g
     style="fill:#aca793"
     transform="matrix(0.60842152,0,0,0.5692076,28.72081,-60.292822)"
     id="layer1">
    <text
       xml:space="preserve"
       style="font-style:normal;font-variant:normal;font-weight:600;font-stretch:normal;line-height:0%;font-family:Lato;-inkscape-font-specification:'Lato Semi-Bold';letter-spacing:0px;word-spacing:0px;fill:#aca793;fill-opacity:1;stroke:none"
       x="51.377365"
       y="346.8248"
       id="text4063"><tspan
         id="tspan4065"
         x="51.377365"
         y="346.8248"
         style="font-style:normal;font-variant:normal;font-weight:normal;font-stretch:normal;font-size:128.77966309px;line-height:1.25;font-family:monospace;-inkscape-font-specification:Monospace;fill:#aca793">01101100 </tspan><tspan
         x="51.377365"
         y="507.79938"
         id="tspan4067"
         style="font-style:normal;font-variant:normal;font-weight:normal;font-stretch:normal;font-size:128.77966309px;line-height:1.25;font-family:monospace;-inkscape-font-specification:Monospace;fill:#aca793">01101111 </tspan><tspan
         x="51.377365"
         y="668.77393"
         id="tspan4069"
         style="font-style:normal;font-variant:normal;font-weight:normal;font-stretch:normal;font-size:128.77966309px;line-height:1.25;font-family:monospace;-inkscape-font-specification:Monospace;fill:#aca793">01110110 </tspan><tspan
         x="51.377365"
         y="829.74854"
         id="tspan4071"
         style="font-style:normal;font-variant:normal;font-weight:normal;font-stretch:normal;font-size:128.77966309px;line-height:1.25;font-family:monospace;-inkscape-font-specification:Monospace;fill:#aca793">01100101</tspan></text>
  </g>
  <g
     data-name="&lt;Group&gt;"
     id="_Group_">
    <g
       data-name="&lt;Group&gt;"
       id="_Group_2">
      <g
         data-name="&lt;Group&gt;"
         id="_Group_3">
        <path
           d="M231.88,278.06H306.1a50,50,0,0,0,0-100H282.45l-50.57-43.9H306.1a93.92,93.92,0,0,1,35.38,180.92L400,365.86H333Z"
           class="cls-1"
           data-name="&lt;Path&gt;"
           id="_Path_" />
      </g>
      <g
         data-name="&lt;Group&gt;"
         id="_Group_4">
        <path
           d="M268.12,221.95H193.9a50,50,0,0,0,0,100h23.64l50.57,43.9H193.9a93.92,93.92,0,0,1-35.38-180.92L100,134.14h67Z"
           class="cls-1"
           data-name="&lt;Path&gt;"
           id="_Path_2" />
      </g>
    </g>
  </g>
</svg>
